src/amo/components/Icon/img/permissions/history.svg

<svg xmlns="http://www.w3.org/2000/svg" xmlns:xlink="http://www.w3.org/1999/xlink" width="24" height="24" viewBox="0 0 24 24">
  <defs>
    <path id="history-a" d="M12,0 C5.372583,-4.05812251e-16 8.11624501e-16,5.372583 0,12 C-8.11624501e-16,18.627417 5.372583,24 12,24 C18.627417,24 24,18.627417 24,12 C23.9925602,5.37566713 18.6243329,0.00743982682 12,0 Z M12,21 C7.02943725,21 3,16.9705627 3,12 C3,7.02943725 7.02943725,3 12,3 C16.9705627,3 21,7.02943725 21,12 C20.9942139,16.9681641 16.9681641,20.9942139 12,21 Z M17.25,12 L12,12 L12,6.75 C12,6.33578644 11.6642136,6 11.25,6 C10.8357864,6 10.5,6.33578644 10.5,6.75 L10.5,12.75 C10.5,13.1642136 10.8357864,13.5 11.25,13.5 L17.25,13.5 C17.6642136,13.5 18,13.1642136 18,12.75 C18,12.3357864 17.6642136,12 17.25,12 Z"/>
  </defs>
  <g fill="none" fill-rule="evenodd">
    <rect width="24" height="24"/>
    <mask id="history-b" fill="#fff">
      <use xlink:href="#history-a"/>
    </mask>
    <g fill="#0F1126" mask="url(#history-b)">
      <rect width="24" height="24"/>
    </g>
  </g>
</svg>

<svg xmlns="http://www.w3.org/2000/svg" xmlns:xlink="http://www.w3.org/1999/xlink" width="24" height="24"><defs><path id="a" d="M12 0C5.373 0 0 5.373 0 12s5.373 12 12 12 12-5.373 12-12C23.993 5.376 18.624.007 12 0Zm0 21a9 9 0 1 1 9-9 9.01 9.01 0 0 1-9 9Zm5.25-9H12V6.75a.75.75 0 1 0-1.5 0v6c0 .414.336.75.75.75h6a.75.75 0 1 0 0-1.5Z"/></defs><g fill="none" fill-rule="evenodd"><path d="M0 0h24v24H0z"/><mask id="b" fill="#fff"><use xlink:href="#a"/></mask><g fill="#0F1126" mask="url(#b)"><path d="M0 0h24v24H0z"/></g></g></svg>
